ui/StatusQ/src/assets/img/icons/frowny.svg

<svg fill="none" height="20" viewBox="0 0 20 20" width="20" xmlns="http://www.w3.org/2000/svg"><g fill="#000"><path d="m15 8.5c0 .82843-.6716 1.5-1.5 1.5s-1.5-.67157-1.5-1.5.6716-1.5 1.5-1.5 1.5.67157 1.5 1.5z"/><path d="m6.5 10c.82843 0 1.5-.67157 1.5-1.5s-.67157-1.5-1.5-1.5-1.5.67157-1.5 1.5.67157 1.5 1.5 1.5z"/><path d="m6.46422 15.2144c.2929.2929.76481.2864 1.10436.0492.68889-.4813 1.52707-.7636 2.43118-.7636.90414 0 1.74224.2823 2.43114.7636.3396.2372.8115.2437 1.1044-.0492s.2955-.7723-.0329-1.0248c-.9698-.7461-2.1844-1.1896-3.50264-1.1896-1.31821 0-2.53281.4435-3.50268 1.1896-.32832.2525-.32575.7319-.03286 1.0248z"/><path clip-rule="evenodd" d="m10 20c5.5228 0 10-4.4772 10-10 0-5.52285-4.4772-10-10-10-5.52285 0-10 4.47715-10 10 0 5.5228 4.47715 10 10 10zm0-1.5c4.6944 0 8.5-3.8056 8.5-8.5 0-4.69442-3.8056-8.5-8.5-8.5-4.69442 0-8.5 3.80558-8.5 8.5 0 4.6944 3.80558 8.5 8.5 8.5z" fill-rule="evenodd"/></g></svg>

<svg width="20" height="20" viewBox="0 0 20 20" fill="none" xmlns="http://www.w3.org/2000/svg">
<path d="M15 8.5C15 9.32843 14.3284 10 13.5 10C12.6716 10 12 9.32843 12 8.5C12 7.67157 12.6716 7 13.5 7C14.3284 7 15 7.67157 15 8.5Z" fill="black"/>
<path d="M6.5 10C7.32843 10 8 9.32843 8 8.5C8 7.67157 7.32843 7 6.5 7C5.67157 7 5 7.67157 5 8.5C5 9.32843 5.67157 10 6.5 10Z" fill="black"/>
<path d="M6.46422 15.2144C6.75712 15.5073 7.22903 15.5008 7.56858 15.2636C8.25747 14.7823 9.09565 14.5 9.99976 14.5C10.9039 14.5 11.742 14.7823 12.4309 15.2636C12.7705 15.5008 13.2424 15.5073 13.5353 15.2144C13.8282 14.9215 13.8308 14.4421 13.5024 14.1896C12.5326 13.4435 11.318 13 9.99976 13C8.68155 13 7.46695 13.4435 6.49708 14.1896C6.16876 14.4421 6.17133 14.9215 6.46422 15.2144Z" fill="black"/>
<path fill-rule="evenodd" clip-rule="evenodd" d="M10 20C15.5228 20 20 15.5228 20 10C20 4.47715 15.5228 0 10 0C4.47715 0 0 4.47715 0 10C0 15.5228 4.47715 20 10 20ZM10 18.5C14.6944 18.5 18.5 14.6944 18.5 10C18.5 5.30558 14.6944 1.5 10 1.5C5.30558 1.5 1.5 5.30558 1.5 10C1.5 14.6944 5.30558 18.5 10 18.5Z" fill="black"/>
</svg>
